shader fractal(

float a = 0,
float b = 0,
float c = 0,
float d = 0,

point position = P,
output color fractalcolor = 0
){
float x = position[0];
float y = position[1];

float temp_x=x;
for(int i=0;i<500;i=i+50){
temp_x = x;
x = sin(a*y)+c*cos(a*x);
y = sin(b*temp_x)+d*cos(b*y);
if(x<1 && y<1)
fractalcolor = i/500.0;

}
}